public/images/icon_javascript.svg

<svg fill="none" height="24" viewBox="0 0 24 24" width="24" xmlns="http://www.w3.org/2000/svg"><path d="m20 12.8v-.2667c0-1.1782-.9551-2.1333-2.1333-2.1333h-1.8667c-1.3254 0-2.4 1.0745-2.4 2.4s1.0746 2.4 2.4 2.4h1.6c1.3255 0 2.4 1.0745 2.4 2.4s-1.0745 2.4-2.4 2.4h-1.6c-1.3254 0-2.4-1.0745-2.4-2.4m-3.2-8.00001v8.00001c0 1.3255-1.07447 2.4-2.39995 2.4s-2.4-1.0745-2.4-2.4m-4.800001-16.800012h22.399951v22.400012h-22.399951z" stroke="#ddd"/></svg>

<svg width="24" height="24" viewBox="0 0 24 24" fill="none" xmlns="http://www.w3.org/2000/svg">
<path d="M20 12.8V12.5333C20 11.3551 19.0449 10.4 17.8667 10.4H16C14.6746 10.4 13.6 11.4745 13.6 12.8C13.6 14.1255 14.6746 15.2 16 15.2H17.6C18.9255 15.2 20 16.2745 20 17.6C20 18.9255 18.9255 20 17.6 20H16C14.6746 20 13.6 18.9255 13.6 17.6M10.4 9.59999V17.6C10.4 18.9255 9.32553 20 8.00005 20C6.67457 20 5.60005 18.9255 5.60005 17.6M0.800049 0.799988H23.2V23.2H0.800049V0.799988Z" stroke="#DDDDDD"/>
</svg>
